X:1
T:Crown Him
T:Lelia Naylor Morris, 1914
T:Crown Him
T:Public Domain
T:Public Domain
T:Public Domain
T:Public Domain
C:Lelia Naylor Morris, 1914
Z:Public Domain
%%score ( 1 2 ) ( 3 4 )
L:1/8
M:6/4
K:Db
V:1 treble 
V:2 treble 
V:3 bass 
V:4 bass 
V:1
 D2 | [DF]4 [DG]2 [DA]4 D2 | [DG]4 [DB]2 [DA]4 [Fd]2 | [Gc]4 [GB]2 [EG]4 [GB]2 | %4
w: 1.~Be-|one day a wond-|scene: There rode a|man of low- ly|
w: 2.~He’s|ing by, just as|yore, And great and|small and rich and|
w: 3.~Soon|is com- ing back|gain, A thou- sand|years on earth to|
 [FA]4 [EG]2 [DF]4 [DF]2 | [EA]4 [EA]2 [EB]4 [EB]2 | [Ec]6 [Ae]6 | %7
w: mien, A- long the|dust- y way, A-|long the|
w: poor, To- day their|Lord de- ny, To-|day their|
w: reign; We’ll see Him|by and by, We’ll|see Him|
 (e2 f2) ([_Ge]2 [Fd]2) [Ec]2 [DB]2 | [CA]6- [CA]4 [GA]2 | [Fd]4 [Fc]2 [FB]4 [DF]2 | %10
w: dust- * y * way; The|ple * thronged|Him as He passed,|
w: Lord * de- * ny; Oh,|of * Him|su- prem- est choice,|
w: by * and * by; All|re- * deemed|with Him He’ll bring,|
 [DA]4 [D=G]2 [C_G]4 [CG]2 | [ce]4 [Bd]2 [Ac]4 [GB]2 | [FA]4 [EG]2 [DF]4 [FA]2 | %13
w: Palm branch- es in|His way they cast,|And cried, “Ho- san-|
w: And with up- lift-|ed heart and voice,|“Ho- san- na to|
w: Who in their hearts|have crowned Him king,|And they shall live|
 [GB]4 [Gc]2 [Ad]4 [Be]2 | [Af]4 [Fd]2 [Ge]4 [Fd]2 | [Fd-]6 [Gd-]6 | [Fd]6 z6 || %17
w: na to the King,|to- day!” * *|||
w: the King of kings”|still cry. Crown Him!|Crown Him!|Crown|
w: and reign with Him|on high. * *|||
"^Refrain" (z2 A,2 A,2) (z2 [A,D]2 [A,D]2) | (z2 [B,D]2 [B,D]2) (z2 [A,D]2 [A,D]2) | %19
w: ||
w: ||
w: ||
 [Fd]4 [Fc]2 [FB]4 [DF]2 | [FA]4 [=E=G]2 [_E_G]6 | [CE]4 [DF]2 ([EG]2 [=DF]2) [EG]2 | [Ac]6 [GB]6 | %23
w: ||||
w: of kings; In your|hearts en- throne|Him, Lord and * Mas-|ter own|
w: ||||
 [FA]4 [=E=G]2 [FA]4 [_GB]2 | [FA]6 [DF]6 | [Fd]6 [Ge]6 | [Af]6 [Ge]4 [Ge]2 | %27
w: ||||
w: Him; Crown Him! Crown|Him! While|heav- en|ex- ult- ant|
w: ||||
 [Fd]2 [Fd]2 [Fd]2 [Be]4 [B=e]2 | [=Af]6- [Af]6 | [Be]4 [Bd]2 ([Bd]2 [Ac]2) [GB]2 | %30
w: |||
w: rings; Crown the bless- èd|Sav- *|ior King of * kings.|
w: |||
 [FA]4 [Af]2 [Aeg]4 [Gc]2 | F2 F2 F2 G4 =E2 | [Fd]6 z4 |] %33
w: |||
w: |||
w: |||
V:2
 D2 | x10 D2 | x12 | x12 | x12 | x12 | x12 | =G4 x8 | x12 | x12 | x12 | x12 | x12 | x12 | x12 | %15
w: hold|rous||||||peo-||||||||
w: pass-|of||||||make||||||||
w: He|a-||||||the||||||||
 x12 | x12 || [DF]6 [FA]6 | [GB]6 [FA]6 | x12 | x12 | x12 | x12 | x12 | x12 | x12 | x12 | x12 | %28
w: |||||||||||||
w: ||the Sav-|ior King||||||||||
w: |||||||||||||
 x12 | x12 | x12 | d6- d6- | x10 |] %33
w: |||||
w: |||||
w: |||||
V:3
 [D,F,]2 | [D,A,]4 [D,E,]2 [D,F,]4 [D,F,]2 | [D,B,]4 [D,G,]2 [D,F,]4 [D,A,]2 | %3
 [E,A,]4 [E,A,]2 [A,C]4 [A,C]2 | [D,D]4 [D,A,]2 [D,A,]4 [D,A,]2 | %5
 [C,A,]4 [C,A,]2 [E,=G,]4 [E,G,]2 | A,6 [A,C]6 | [E,B,]4 [E,B,]2 [E,=G,]4 [E,G,]2 | %8
 [A,,A,]6- [A,,A,]4 [C,A,]2 | [D,A,]4 [D,A,]2 [D,A,]4 [D,A,]2 | [F,A,]4 [=E,B,]2 [_E,A,]4 [E,A,]2 | %11
 [A,,A,]4 [A,,A,]2 [A,,A,]4 [A,,A,]2 | A,,2 B,,2 [C,A,]2 [D,A,]4 [D,D]2 | %13
 [G,D]4 [E,A,]2 [F,D]4 [G,D]2 | [A,D]4 [A,D]2 [A,,A,]4 [D,A,]2 | [D,-A,]6 [D,-B,]6 | [D,A,]6 z6 || %17
 [D,,D,]6 [F,,F,]6 | [G,,G,]6 [F,,F,]6 | ([D,,D,]2 [D,F,A,]2) z2 ([D,,D,]2 [D,F,A,]2) z2 | %20
 ([A,,A,]2 [A,,A,]2) [B,,B,]2 ([C,C]2 [B,,B,]2 [A,,A,]2) | %21
 ([A,,A,]2 [G,A,C]2) z2 ([A,,A,]2 [G,A,C]2) z2 | %22
 ([A,,A,]2 [G,A,C]2 [G,A,C]2) ([A,,A,]2 [G,A,C]2 [G,A,C]2) | %23
 ([D,,D,]2 [F,A,D]2) [F,A,D]2 ([D,,D,]2 [F,A,D]2) [F,A,D]2 | %24
 ([D,,D,]2 [D,F,A,]2 [D,F,A,]2) ([D,,D,]2 [D,F,A,]2 [D,F,A,]2) | %25
 ([D,A,]2 [D,A,]2 [D,A,]2) [A,C]4 [A,C]2 | (D2 D2 D2) [A,C]4 [A,C]2 | B,2 B,2 B,2 [G,B,]4 [G,B,]2 | %28
 [F,C]6- [F,C]6 | [G,B,]4 [G,B,]2 (B,2 C2) [G,D]2 | [A,D]4 [A,D]2 [A,,C]4 [A,,A,]2 | %31
 A,2 A,2 A,2 B,4 G,2 | [D,A,]6 z4 |] %33
V:4
 x2 | x12 | x12 | x12 | x12 | x12 | A,6 x6 | x12 | x12 | x12 | x12 | x12 | A,4 x8 | x12 | x12 | %15
 x12 | x12 || x12 | x12 | x12 | x12 | x12 | x12 | x12 | x12 | x12 | D2 D2 D2 x6 | B,2 B,2 B,2 x6 | %28
 x12 | x6 G,4 x2 | x12 | D,6- D,6- | x10 |] %33

